X:1
T:New Bridge of Ballaters, The
T:New Bridge of Ballaters, The
T:Robert Petrie
C:Robert Petrie
L:1/8
M:2/2
K:C
V:1 treble 
V:1
 F | TE>DC>G A>FG>F | E>Gc>E F<DD>F | TE>DC>G A>FG>F | E>Gc>G E<CC :| e | c<cc>f e>c e2 | %7
 c<c f/e/d/c/ B<dd>e | c<cc>f e>c e2 | f>aTg>f e<cc>e | c<cc>f e>c e2 | c<c f/e/d/c/ B<dd>e | %12
 (3fgf (3efe (3ded (3cdc | d>ef>d (e<c)c || %14

